X:839
T:Cluck Old Hen
S:Krassen, Appalachian Fiddle, New York 1973
Z:Nigel Gatherer
M:2/4
L:1/8
K:Ador
e2 a2 | g2  a>g | e>f g>e | d2  f2 |
e2 a2 | g>a g>f | e>d c>d | A4    :|
A2 A2 | c2  c>B | A>c B>A | G>F G2 |
A2 A2 | c>A c>d | e>d c>d | A4    :|
